svg/color/apex.svg

<svg height="32" viewBox="0 0 32 32" width="32" xmlns="http://www.w3.org/2000/svg"><g fill="none" fill-rule="evenodd"><circle cx="16" cy="16" fill="#1f4c9f" r="16"/><path d="m6 19.25 10-12.75 10 12.75v4.25l-10-12.75-10 12.75zm10.5 1.25c-1.3807119 0-2.5-1.1192881-2.5-2.5s1.1192881-2.5 2.5-2.5 2.5 1.1192881 2.5 2.5-1.1192881 2.5-2.5 2.5z" fill="#fff"/></g></svg>

<svg xmlns="http://www.w3.org/2000/svg" width="32" height="32" viewBox="0 0 32 32">
  <g fill="none" fill-rule="evenodd">
    <circle cx="16" cy="16" r="16" fill="#1F4C9F"/>
    <path fill="#FFF" d="M6,19.25 L16,6.5 L26,19.25 L26,23.5 L16,10.75 L6,23.5 L6,19.25 Z M16.5,20.5 C15.1192881,20.5 14,19.3807119 14,18 C14,16.6192881 15.1192881,15.5 16.5,15.5 C17.8807119,15.5 19,16.6192881 19,18 C19,19.3807119 17.8807119,20.5 16.5,20.5 Z"/>
  </g>
</svg>
